X: 85
T:Inisheer
T:Inis Oirr
T:Old Arm Chair, The
F:http://blackrosetheband.googlepages.com/ABCTUNES.ABC May 2009
M:3/4
L:1/8
R:waltz
K:Dmix
T:Part A
D2|:"G"B3A Bd | "Bm"B3A Bd | "C"E3B AB | "D"D3B AG |
"G"B3A Bd | "Bm"B3A Bd | "C"G3B "D"A/2G/2F |1 "G"G3E DG :|2 "G"G3A Bd ||
T:Part B
"C"e3f ed | "G"B3A Bd | "EM(C)"ef ed "(Bm)"B/2c/2d |"Em"e3A Bd |
"C"e3f ed | "G"B3A Bd | "D"G3B A/2G/2F |"G"G3A Bd |
"C" e3f ed | "G"B3A Bd | "Em(C)"gf ed "(Bm)"B/2c/2d |"Em"e3A Bd |
"C" e3f ed | "G"B3A Bd | "D"D3B A/2G/2F | "G"G6 ||

